packages/ffe-icons/icons/filled/md/browse.svg

<svg xmlns="http://www.w3.org/2000/svg" height="24" viewBox="0 -960 960 960" width="24"><path d="M140.001-440v-307.691q0-30.308 21-51.308t51.308-21H440V-440H140.001ZM520-819.999h227.691q30.308 0 51.308 21t21 51.435V-600H520v-219.999Zm0 679.998V-520h299.999v307.691q0 30.308-21 51.308t-51.308 21H520ZM140.001-360H440v219.999H212.309q-30.308 0-51.308-21t-21-51.435V-360Z"/></svg>

<svg xmlns="http://www.w3.org/2000/svg" height="24" viewBox="0 -960 960 960" width="24"><path d="M140-440v-307.69Q140-778 161-799q21-21 51.31-21H440v380H140Zm380-380h227.69Q778-820 799-799q21 21 21 51.44V-600H520v-220Zm0 680v-380h300v307.69Q820-182 799-161q-21 21-51.31 21H520ZM140-360h300v220H212.31Q182-140 161-161q-21-21-21-51.44V-360Z"/></svg>
